X:251
T:
R:polska
S:Ur von Baumgartens samling, Visby.
O:Gotland, Visby
M:3/4
L:1/16
K:A
C2E2 B,2G2 A,4|a2a2 gefg a4|afdf fece edBd|dcAc cBGB A4|
C2E2 B,2G2 A,4|a2a2 gefg a4|afdf fece edBd|cBAG A4 A,4::
c2ec d2fd c2ed|cABc defg a2a2|c2ec d2fd c2ed|cBAG A4 A,4:|

